components/ui-node-icon/src/addGPTColumn/addGPTColumn.medium.svg

<svg width="24" height="24" viewBox="0 0 24 24" fill="none" xmlns="http://www.w3.org/2000/svg">
  <path fill-rule="evenodd" clip-rule="evenodd" d="M11 4C11 2.89543 10.1046 2 9 2H5C3.89543 2 3 2.89543 3 4V19C3 20.1046 3.89543 21 5 21H9C10.1046 21 11 20.1046 11 19V16.5359C10.3971 16.1878 9.70823 16 9 16C8.46957 16 7.96086 15.7893 7.58579 15.4142C7.21071 15.0391 7 14.5304 7 14C7 13.4696 7.21071 12.9609 7.58579 12.5858C7.96086 12.2107 8.46957 12 9 12C9.70823 12 10.3971 11.8122 11 11.4641L11 4ZM11 12.5826C10.3751 12.8553 9.69501 13 9 13C8.73478 13 8.48043 13.1054 8.29289 13.2929C8.10536 13.4804 8 13.7348 8 14C8 14.2652 8.10536 14.5196 8.29289 14.7071C8.48043 14.8946 8.73478 15 9 15C9.69501 15 10.3751 15.1447 11 15.4174L11 12.5826Z" fill="url(#paint0_linear_2707_1491)"/>
  <path d="M22 14C22 14.2652 21.8946 14.5196 21.7071 14.7071C21.5196 14.8946 21.2652 15 21 15C19.6739 15 18.4021 15.5268 17.4645 16.4645C16.5268 17.4021 16 18.6739 16 20C16 20.2652 15.8946 20.5196 15.7071 20.7071C15.5196 20.8946 15.2652 21 15 21C14.7348 21 14.4804 20.8946 14.2929 20.7071C14.1054 20.5196 14 20.2652 14 20C14 18.6739 13.4732 17.4021 12.5355 16.4645C11.5979 15.5268 10.3261 15 9 15C8.73478 15 8.48043 14.8946 8.29289 14.7071C8.10536 14.5196 8 14.2652 8 14C8 13.7348 8.10536 13.4804 8.29289 13.2929C8.48043 13.1054 8.73478 13 9 13C10.3261 13 11.5979 12.4732 12.5355 11.5355C13.4732 10.5979 14 9.32608 14 8C14 7.73478 14.1054 7.48043 14.2929 7.29289C14.4804 7.10536 14.7348 7 15 7C15.2652 7 15.5196 7.10536 15.7071 7.29289C15.8946 7.48043 16 7.73478 16 8C16 9.32608 16.5268 10.5979 17.4645 11.5355C18.4021 12.4732 19.6739 13 21 13C21.2652 13 21.5196 13.1054 21.7071 13.2929C21.8946 13.4804 22 13.7348 22 14Z" fill="url(#paint1_linear_2707_1491)"/>
  <defs>
    <linearGradient id="paint0_linear_2707_1491" x1="7" y1="2" x2="7" y2="21" gradientUnits="userSpaceOnUse">
      <stop stop-color="var(--tbl--colors--icons--ai--secondary--from)"/>
      <stop offset="1" stop-color="var(--tbl--colors--icons--ai--secondary--to)"/>
    </linearGradient>
    <linearGradient id="paint1_linear_2707_1491" x1="15" y1="7" x2="15" y2="21" gradientUnits="userSpaceOnUse">
      <stop stop-color="var(--tbl--colors--icons--ai--primary--from)"/>
      <stop offset="1" stop-color="var(--tbl--colors--icons--ai--primary--to)"/>
    </linearGradient>
  </defs>
</svg>

<svg xmlns="http://www.w3.org/2000/svg" width="24" height="24" fill="none" viewBox="0 0 24 24">
  <path fill="url(#a)" fill-rule="evenodd" d="M11 4a2 2 0 0 0-2-2H5a2 2 0 0 0-2 2v15a2 2 0 0 0 2 2h4a2 2 0 0 0 2-2v-2.464A4 4 0 0 0 9 16a2 2 0 1 1 0-4 4 4 0 0 0 2-.536V4Zm0 8.583A5 5 0 0 1 9 13a1 1 0 0 0 0 2 5 5 0 0 1 2 .417v-2.834Z" clip-rule="evenodd"/>
  <path fill="url(#b)" d="M22 14a1 1 0 0 1-1 1 5 5 0 0 0-5 5 1 1 0 0 1-2 0 5 5 0 0 0-5-5 1 1 0 0 1 0-2 5 5 0 0 0 5-5 1 1 0 0 1 2 0 5 5 0 0 0 5 5 1 1 0 0 1 1 1Z"/>
  <defs>
    <linearGradient id="a" x1="7" x2="7" y1="2" y2="21" gradientUnits="userSpaceOnUse">
      <stop stop-color="var(--tbl--colors--icons--ai--secondary--from)"/>
      <stop offset="1" stop-color="var(--tbl--colors--icons--ai--secondary--to)"/>
    </linearGradient>
    <linearGradient id="b" x1="15" x2="15" y1="7" y2="21" gradientUnits="userSpaceOnUse">
      <stop stop-color="var(--tbl--colors--icons--ai--primary--from)"/>
      <stop offset="1" stop-color="var(--tbl--colors--icons--ai--primary--to)"/>
    </linearGradient>
  </defs>
</svg>
